static/img/kroki/446c716b7a709924a2211395ce1e2099.svg

<?xml version="1.0" encoding="us-ascii" standalone="no"?><svg xmlns="http://www.w3.org/2000/svg" xmlns:xlink="http://www.w3.org/1999/xlink" contentStyleType="text/css" height="374px" preserveAspectRatio="none" style="width:269px;height:374px;" version="1.1" viewBox="0 0 269 374" width="269px" zoomAndPan="magnify"><defs/><g><!--class kubernetes_resource--><g id="elem_kubernetes_resource"><rect codeLine="23" fill="#3D176E" height="39.7891" id="kubernetes_resource" rx="2.5" ry="2.5" style="stroke:#000D19;stroke-width:0.5;" width="216" x="26.5" y="167.79"/><ellipse cx="41.5" cy="187.6845" fill="#ADD1B2" rx="11" ry="11" style="stroke:#181818;stroke-width:1.0;"/><path d="M44.4688,193.3252 Q43.8906,193.622 43.25,193.7627 Q42.6094,193.9189 41.9063,193.9189 Q39.4063,193.9189 38.0781,192.2783 Q36.7656,190.622 36.7656,187.497 Q36.7656,184.372 38.0781,182.7158 Q39.4063,181.0595 41.9063,181.0595 Q42.6094,181.0595 43.25,181.2158 Q43.9063,181.372 44.4688,181.6689 L44.4688,184.3877 Q43.8438,183.8095 43.25,183.5439 Q42.6563,183.2627 42.0313,183.2627 Q40.6875,183.2627 40,184.3408 Q39.3125,185.4033 39.3125,187.497 Q39.3125,189.5908 40,190.6689 Q40.6875,191.7314 42.0313,191.7314 Q42.6563,191.7314 43.25,191.4658 Q43.8438,191.1845 44.4688,190.6064 L44.4688,193.3252 Z " fill="#000000"/><text fill="#D9B8FF" font-family="Helvetica" font-size="17" lengthAdjust="spacing" textLength="174" x="60.5" y="193.5698">kubernetes_resource</text></g><!--class kubernetes_storage_class--><g id="elem_kubernetes_storage_class"><rect codeLine="26" fill="#3D176E" height="39.7891" id="kubernetes_storage_class" rx="2.5" ry="2.5" style="stroke:#000D19;stroke-width:0.5;" width="255" x="7" y="328.58"/><ellipse cx="22" cy="348.4745" fill="#ADD1B2" rx="11" ry="11" style="stroke:#181818;stroke-width:1.0;"/><path d="M24.9688,354.1152 Q24.3906,354.412 23.75,354.5527 Q23.1094,354.7089 22.4063,354.7089 Q19.9063,354.7089 18.5781,353.0683 Q17.2656,351.412 17.2656,348.287 Q17.2656,345.162 18.5781,343.5058 Q19.9063,341.8495 22.4063,341.8495 Q23.1094,341.8495 23.75,342.0058 Q24.4063,342.162 24.9688,342.4589 L24.9688,345.1777 Q24.3438,344.5995 23.75,344.3339 Q23.1563,344.0527 22.5313,344.0527 Q21.1875,344.0527 20.5,345.1308 Q19.8125,346.1933 19.8125,348.287 Q19.8125,350.3808 20.5,351.4589 Q21.1875,352.5214 22.5313,352.5214 Q23.1563,352.5214 23.75,352.2558 Q24.3438,351.9745 24.9688,351.3964 L24.9688,354.1152 Z " fill="#000000"/><text fill="#D9B8FF" font-family="Helvetica" font-size="17" lengthAdjust="spacing" textLength="213" x="41" y="354.3598">kubernetes_storage_class</text></g><!--class resource--><g id="elem_resource"><rect codeLine="29" fill="#3D176E" height="39.7891" id="resource" rx="2.5" ry="2.5" style="stroke:#000D19;stroke-width:0.5;" width="113" x="78" y="7"/><ellipse cx="93" cy="26.8945" fill="#ADD1B2" rx="11" ry="11" style="stroke:#181818;stroke-width:1.0;"/><path d="M95.9688,32.5352 Q95.3906,32.832 94.75,32.9727 Q94.1094,33.1289 93.4063,33.1289 Q90.9063,33.1289 89.5781,31.4883 Q88.2656,29.832 88.2656,26.707 Q88.2656,23.582 89.5781,21.9258 Q90.9063,20.2695 93.4063,20.2695 Q94.1094,20.2695 94.75,20.4258 Q95.4063,20.582 95.9688,20.8789 L95.9688,23.5977 Q95.3438,23.0195 94.75,22.7539 Q94.1563,22.4727 93.5313,22.4727 Q92.1875,22.4727 91.5,23.5508 Q90.8125,24.6133 90.8125,26.707 Q90.8125,28.8008 91.5,29.8789 Q92.1875,30.9414 93.5313,30.9414 Q94.1563,30.9414 94.75,30.6758 Q95.3438,30.3945 95.9688,29.8164 L95.9688,32.5352 Z " fill="#000000"/><text fill="#D9B8FF" font-family="Helvetica" font-size="17" lengthAdjust="spacing" textLength="71" x="112" y="32.7798">resource</text></g><!--reverse link resource to kubernetes_resource--><g id="link_resource_kubernetes_resource"><path codeLine="32" d="M134.5,65.05 C134.5,95.57 134.5,136.9 134.5,167.46 " fill="none" id="resource-backto-kubernetes_resource" style="stroke:#FFAF37;stroke-width:2.0;"/><polygon fill="none" points="134.5,47.05,128.5,65.05,140.5,65.05,134.5,47.05" style="stroke:#FFAF37;stroke-width:2.0;"/></g><!--reverse link kubernetes_resource to kubernetes_storage_class--><g id="link_kubernetes_resource_kubernetes_storage_class"><path codeLine="33" d="M134.5,225.84 C134.5,256.36 134.5,297.69 134.5,328.25 " fill="none" id="kubernetes_resource-backto-kubernetes_storage_class" style="stroke:#FFAF37;stroke-width:2.0;"/><polygon fill="none" points="134.5,207.84,128.5,225.84,140.5,225.84,134.5,207.84" style="stroke:#FFAF37;stroke-width:2.0;"/></g><!--SRC=[XPBBReCm44NtV8Mbh96WKKkGkaaZLUqcgfhk8uF7O04s6W-DqiU_DvGsCZYFfUSUpxqpcb89OD2qj6SDD1cW3MobTCkHDso9Q7OhKnjaCocvd2TJyT5ekWgiUGFi2Uft89NpAV5MghpIO2sxSQG7dbS5cawBeJqXr_OWWIQ7MjNSsYKHggmZSCA8D5j8EIMdJMTp4ITtu6461U0V4aMHYDCfSjNgujn7OgC-WCNkqjQ6m8lfMVnI5rFsX1FI6_HVFvlnXGkXTC5kdThha0aruAY-ARamkvwMlBQkZIL0CBHlOULD1Ub2oEGa_7mE3l9-TQpg3fUgWS1k4QpfC0Vs6GJVlcp982zWEmWEC_vtVDr_XM5ugdzmojEZHtR13m00]--></g></svg>

<svg xmlns="http://www.w3.org/2000/svg" width="269" height="374" viewBox="0 0 269 374"><rect width="216" height="39.789" x="26.5" y="167.79" fill="#3D176E" rx="2.5" ry="2.5" style="stroke:#000d19;stroke-width:.5"/><circle cx="41.5" cy="187.685" r="11" fill="#ADD1B2" style="stroke:#181818;stroke-width:1"/><path d="M44.469 193.325q-.578.297-1.219.438-.64.156-1.344.156-2.5 0-3.828-1.64-1.312-1.657-1.312-4.782t1.312-4.781q1.328-1.656 3.828-1.656.703 0 1.344.156.656.156 1.219.453v2.719q-.625-.578-1.219-.844-.594-.281-1.219-.281-1.343 0-2.031 1.078-.687 1.062-.687 3.156t.687 3.172q.688 1.062 2.031 1.062.625 0 1.219-.265.594-.281 1.219-.86z"/><text x="60.5" y="193.57" fill="#D9B8FF" font-family="Helvetica" font-size="17" textLength="174">kubernetes_resource</text><rect width="255" height="39.789" x="7" y="328.58" fill="#3D176E" rx="2.5" ry="2.5" style="stroke:#000d19;stroke-width:.5"/><circle cx="22" cy="348.474" r="11" fill="#ADD1B2" style="stroke:#181818;stroke-width:1"/><path d="M24.969 354.115q-.578.297-1.219.438-.64.156-1.344.156-2.5 0-3.828-1.64-1.312-1.657-1.312-4.782t1.312-4.781q1.328-1.656 3.828-1.656.703 0 1.344.156.656.156 1.219.453v2.719q-.625-.579-1.219-.844-.594-.281-1.219-.281-1.343 0-2.031 1.078-.687 1.062-.687 3.156t.687 3.172q.688 1.062 2.031 1.062.625 0 1.219-.265.594-.281 1.219-.86z"/><text x="41" y="354.36" fill="#D9B8FF" font-family="Helvetica" font-size="17" textLength="213">kubernetes_storage_class</text><rect width="113" height="39.789" x="78" y="7" fill="#3D176E" rx="2.5" ry="2.5" style="stroke:#000d19;stroke-width:.5"/><circle cx="93" cy="26.895" r="11" fill="#ADD1B2" style="stroke:#181818;stroke-width:1"/><path d="M95.969 32.535q-.578.297-1.219.438-.64.156-1.344.156-2.5 0-3.828-1.64-1.312-1.657-1.312-4.782t1.312-4.781q1.328-1.656 3.828-1.656.703 0 1.344.156.656.156 1.219.453v2.719q-.625-.578-1.219-.844-.594-.281-1.219-.281-1.344 0-2.031 1.078-.687 1.062-.687 3.156t.687 3.172q.688 1.062 2.031 1.062.625 0 1.219-.265.594-.281 1.219-.86z"/><text x="112" y="32.78" fill="#D9B8FF" font-family="Helvetica" font-size="17" textLength="71">resource</text><path fill="none" d="M134.5 65.05v102.41m0-120.41-6 18h12zm0 178.79v102.41m0-120.41-6 18h12z" style="stroke:#ffaf37;stroke-width:2"/></svg>
